dist/svg/info-o.svg

<!-- Generated by Trend Micro Style Portal -->
<svg version="1.1" xmlns="http://www.w3.org/2000/svg" width="16" height="16" viewBox="0 0 16 16">
  <title>info-o</title>
  <path fill="rgb(34,34,34)" d="M8 0c-4.418 0-8 3.582-8 8s3.582 8 8 8c4.418 0 8-3.582 8-8v0c0-4.418-3.582-8-8-8v0zM8 14.5c-3.59 0-6.5-2.91-6.5-6.5s2.91-6.5 6.5-6.5c3.59 0 6.5 2.91 6.5 6.5v0c-0.006 3.588-2.912 6.494-6.499 6.5h-0.001zM6 7v1h1v3h-1v1h4v-1h-1v-4zM9 4h-2v2h2z"></path>
</svg>

<svg width="16" height="16" viewBox="0 0 16 16" fill="rgb(34, 34, 34)" xmlns="http://www.w3.org/2000/svg"><title>info-o</title><path d="M8 0C3.582 0 0 3.582 0 8C0 12.418 3.582 16 8 16C12.418 16 16 12.418 16 8C16 3.582 12.418 0 8 0ZM8 14.5C4.41 14.5 1.5 11.59 1.5 8C1.5 4.41 4.41 1.5 8 1.5C11.59 1.5 14.5 4.41 14.5 8C14.494 11.588 11.588 14.494 8.001 14.5H8ZM6 7V8H7V11H6V12H10V11H9V7H6ZM9 4H7V6H9V4Z" fill="rgb(34, 34, 34)" fill-opacity="1.00"/></svg>
